X: 2115
T: Ölürsem Yazıktır Sana Kanmadan
C: Hayri Yenigün
O: Turkey
F: http://compmusic.upf.edu/node/140
N: segah--sarki--murekkepnimsofyan--olursem_yaziktir--hayri_yenigun
N: makam= segah
N: form= sarki
N: usul= murekkepnimsofyan = 12/16
M: 12/16
L: 1/16
K: C _1/4B _1/4e ^f 
Q: 1/4=240
%%MIDI tuningsystem comma53
.G2 .B2 .d2 g6  | a3/2g/ f e d c B2 ^A2 B2  | \
w:  ARANAĞME  |   | 
.G2 .B2 .d2 a6  | b3/2a/ g f e d c2 B2 ^A B  | 
w:   |   | 
.G2 .B2 .d2 b6  | c'3/2b/ a g f e d c B ^A B2  | \
w:   |   | 
g3/2=f/ a g ^f e f3/2e/ g f e d  | 
w:   | 
e3/2d/ =f e d c B ^A B2 z2  | .G2 .B2 .d2 g6  | \
w:   |  ARANAĞME  | 
a3/2g/ f e d c B2 ^A2 B2  | 
w:   | 
.G2 .B2 .d2 a6  | b3/2a/ g f e d c2 B2 ^A B  | \
w:   |   | 
.G2 .B2 .d2 b6  | c'3/2b/ a g f e d c B ^A B2  | 
w:   |   | 
g3/2=f/ a g ^f e f3/2e/ g f e d  | \
w:   | 
e3/2d/ =f e d c B ^A B2 z2  | 
w:   | 
c2 d4 g2 f2 e2  | d e d c B ^A B6  | \
w:  Ö lür sem  |  ya *  zık *  *  *  tır   | 
g f a2 g2 f e g2 e d  | 
w:  sa *  na  *  kan *  *  ma  | 
d6 d3/2c/ B ^A B2  | c2 d4 g2 f2 e2  | \
w:  dan   SAZ  |  Ö lür sem  | 
d e d c B ^A B6  | g f a2 g2 f e g2 e d  | 
w:  ya *  zık *  *  *  tır   |  sa *  na  *  kan *  *  ma  | 
d6 d B G B d2  | e3/2d/ e2 f2 g6  | c'3/2_b/ a2 b2 a3/2g/ f2 e2  | \
w:  dan   SAZ  |  Kol *  *  la rım   |  boy *  *  *  nun *  *  da   | 
a3/2_b/ a2 g2 a3/2g/ f2 ^e2  | 
w:  hal *  ka *  lan *  *  ma  | 
f8-f2 z2  | g3/2a/ g2 f2 f3/2g/ f2 e2  | \
w:  dan    |  Kol *  *  la rım   | 
e3/2=f/ e f e d d3/2e/ d c B2  | 
w:  boy *  *  *  *  *  nun *  *  *  da   | 
g3/2f/ e2 d2 d3/2c/ B2 ^A2  | B6 b4 z2  | \
w:  hal *  *  ka lan *  *  ma  |  dan   SAZ  | 
g4 ^a2 b6  | b3/2c'/ b2 ^a2 g2 f2 ^e2  | 
w:  Bir  gü nüm   |  geç *  *  mi yor   | 
f2 f4 g2 ^a2 c' b  | b8-b2 z2  | ^a2 b2 c'2 b2 a2 g2  | \
w:  se ni  an *  ma  |  dan    |  Der *  di ne  *  kat  | 
g f _7/8e d e f e2 f4  | 
w:  lan *  *  *  *  *  dım   | 
_b3/2a/ g2 a2 f _7/8e g f e d  | d12  | \
w:  hiç  *  *  u san *  *  *  ma  |  dan    | 
c2 e4 e d e d .e2  | d2 f4 f e f e f2  | 
w:  Di yor lar   |  kül  ol maz   | 
d2 _7/8e4 e3/2d/ c2 d2  | _7/8e8-_7/8e2 z2  | \
w:  a teş  yan *  *  ma  |  dan    | 
d2 f4 f2 e2 d2  | d2 g4 a3/2f/ g e d2  | 
w:  De niz ler   |  du rul maz   | 
d4 B2 d3/2c/ B2 ^A2  | B8-B2 z2  | c2 e4 e d e d .e2  | \
w:  dal ga lan *  *  ma  |  dan    |  Di yor lar   | 
d2 f4 f e f e f2  | 
w:  kül  ol maz   | 
d2 _7/8e4 e3/2d/ c2 d2  | _7/8e8-_7/8e2 z2  | \
w:  a teş  yan *  *  ma  |  dan    | 
d2 f4 f2 e2 d2  | d2 g4 a3/2f/ g e d2  | 
w:  De niz ler   |  du rul maz   | 
d4 B2 d3/2c/ B2 ^A2  | B8-B2 z2  | |


